logo/google-optimize.svg

<?xml version="1.0" encoding="UTF-8"?>
<svg width="256px" height="264px" viewBox="0 0 256 264" version="1.1" xmlns="http://www.w3.org/2000/svg" xmlns:xlink="http://www.w3.org/1999/xlink" preserveAspectRatio="xMidYMid">
    <g>
        <path d="M168.200356,131.116813 C167.739978,111.166802 151.31154,95.3020846 131.357615,95.5382839 L36.3611364,95.5382839 L36.3611364,166.695342 L97.8861056,166.695342 L97.8861056,226.534696 C97.3613458,235.999903 100.707721,245.271644 107.15648,252.219955 C113.605239,259.168265 122.602019,263.195839 132.080022,263.377437 C141.755677,263.282112 150.997121,259.346809 157.771099,252.437351 C164.545078,245.527893 168.296629,236.210342 168.200356,226.534696 L168.200356,131.116813 L168.200356,131.116813 Z" fill="#B366F6"></path>
        <circle fill="#8430CE" cx="35.9397325" cy="131.538217" r="35.9397325"></circle>
        <path d="M255.912568,35.7591308 C255.714483,15.9516231 239.600732,0 219.792233,0 L122.628535,0 C104.169577,1.85285115 90.1157159,17.3880169 90.1157159,35.9397325 C90.1157159,54.4914481 104.169577,70.0266139 122.628535,71.879465 L184.87591,71.879465 L184.87591,131.658618 C184.338798,144.707798 190.994367,157.002309 202.214253,163.6869 C213.434139,170.37149 227.41454,170.37149 238.634425,163.6869 C249.854311,157.002309 256.509881,144.707798 255.972768,131.658618 L255.912568,35.7591308 Z" fill="#C58AF8"></path>
    </g>
</svg>

<svg viewBox="0 0 256 264" xmlns="http://www.w3.org/2000/svg"><path fill="#B366F6" d="M168.2 131.11c-.47-19.96-16.89-35.82-36.85-35.58h-95v71.15h61.52v59.83c-.53 9.46 2.82 18.73 9.27 25.68 6.44 6.94 15.44 10.97 24.92 11.15 9.67-.1 18.91-4.04 25.69-10.95 6.77-6.91 10.52-16.23 10.42-25.91v-95.42 0Z"/><path fill="#8430CE" d="M35.93 95.59a35.93 35.93 0 1 0 0 71.87 35.93 35.93 0 1 0 0-71.88Z"/><path fill="#C58AF8" d="M255.91 35.75c-.2-19.81-16.32-35.76-36.13-35.76h-97.17c-18.46 1.85-32.52 17.38-32.52 35.93s14.05 34.08 32.51 35.93h62.24v59.77c-.54 13.04 6.11 25.34 17.33 32.02 11.21 6.68 25.2 6.68 36.42 0 11.21-6.69 17.87-18.98 17.33-32.03l-.07-95.9Z"/></svg>
